X: 1
T: Old Missouri
%O: from Viola Ruth
B: Lee Owens "Advanced Square Dance Figures of the West and Southwest" p.124
R: reel
Z: 2010 John Chambers <jc:trillian.mit.edu>
M: 2/4
L: 1/16
K: D
((3vABc |\
"D"d2)A2 F2A2 | vd2uMD2- MD2 ((3vABc | d2)A2 F2A2 | "A7"vB2uME2- ME2 ((3vABc |
"D"d2)A2 F2A2 | "G"B2g2 f2e2 | "A"cBcB "A7"A2f2 | "D"f2d2 d2 :|
|: (fg) | "D"a2f2 g2e2 | f2Md2- Md2((fg) | a2)f2 g2a2 | "A7"b3Me- Me2((fg) |
"D"a2)f2 g2e2 | fdef e2c2 | "A"d2B2 "A7"A2f2 | "D"f2d2 d2 :|

%%sep 1 1 500

